X: 35912
T: Sandy Skinner
R: reel
M: 4/4
K: Dmajor
c|d/d/d Ac d/d/d fe|d/d/d AF BEEc|{c}d/d/d Ac d/d/d fe|d/d/d AG FDD:|
G|FGAG FEDc|d/d/d AF BEEG|FGAG FEDc|{c}d/d/d AG FDDG|
FGAG FEDc|d/d/d AF BEEb|agfe dcBA|d/d/d AG FDD||

